raw/spot/spot-no-internet.svg

<svg width="80" height="80" viewBox="0 0 80 80" fill="none" xmlns="http://www.w3.org/2000/svg">
<mask id="mask0_724_2123" style="mask-type:alpha" maskUnits="userSpaceOnUse" x="6" y="10" width="62" height="63">
<circle cx="37" cy="41.9961" r="31" fill="#C4C4C4"/>
</mask>
<g mask="url(#mask0_724_2123)">
<circle cx="37" cy="41.9961" r="31" fill="#E3E7F5"/>
<path d="M27.9136 70.3555C29.2341 69.4858 32.777 71.1281 35.1926 70.4838C36.6419 70.0972 37.4663 68.5319 37.93 67.1662C38.5096 65.4592 39.4759 65.2016 40.6675 63.8488C41.8591 62.496 44.5328 62.8176 47.2056 63.1396C49.8784 63.4616 50.5987 64.2204 51.0068 65.7482C51.3937 67.1973 51.4257 69.2589 51.3292 70.8371C51.2327 72.4152 48.8818 77.1822 48.7853 78.7604C48.6888 80.3385 49.3331 82.7541 49.2366 84.3323C49.1401 85.9105 47.0788 85.9428 45.8548 85.2343C44.6309 84.5258 43.5358 84.3004 41.9576 84.2039C40.3794 84.1074 40.2505 83.6243 39.5097 82.7869C38.7689 81.9496 37.5449 81.2411 35.709 80.1784C33.8731 79.1156 31.9508 75.5521 29.4276 74.0915C26.9797 72.6745 26.5931 71.2252 27.9136 70.3555Z" fill="#D3D8EA"/>
<path d="M23.2327 15.5945C23.663 13.3463 26.5536 14.1939 24.5698 11.2688C22.586 8.34362 18.2045 7.2876 29.3941 3.79432C40.5838 0.30105 63.6494 10.3532 63.6494 10.3532L67.7497 17.6268L71.85 24.9005L69.5112 50.4157L65.5403 44.5655C65.5403 44.5655 64.1611 43.7917 63.6701 43.6977C63.179 43.6037 61.7268 45.8711 60.8386 45.192C59.9505 44.513 58.7382 40.2083 58.6231 38.1499C58.508 36.0916 58.7901 34.6183 58.9781 33.6362C59.1661 32.654 58.957 31.0867 59.145 30.1046C59.333 29.1224 60.9347 27.6081 61.7674 27.043C62.6001 26.4779 63.4497 28.8923 63.6377 27.9101C63.8257 26.928 63.0316 25.7578 62.6345 25.1727C62.2374 24.5876 60.5551 22.7383 60.3671 23.7205C60.1791 24.7027 59.5812 26.6245 58.3298 26.385C57.0784 26.1454 58.0268 25.3088 58.2148 24.3266C58.4969 22.8528 55.8971 24.0851 55.5 23.5C55.1029 22.9149 55.2528 22.0045 53.4765 20.6463C51.7002 19.2881 50.3477 17.6268 49.5 17.6268C49 17.6268 47.7447 15.196 47.0656 16.0841C46.3865 16.9723 47.0867 18.6335 46.5016 19.0306C45.9165 19.4277 45.4254 19.3337 44.5373 18.6546C43.6491 17.9755 43.534 15.9172 41.9668 16.1262C40.3995 16.3353 40.0235 18.2996 40.9117 18.9787C41.7998 19.6578 44.3703 22.1862 43.5972 23.5654C42.8241 24.9447 39.6896 25.3628 38.0283 26.063C36.3671 26.7631 33.9327 28.8425 32.8565 29.1456C31.7804 29.4486 31.8954 31.507 30.9133 31.319C29.9311 31.131 28.6458 29.8668 26.6815 29.4908C24.7172 29.1147 22.1888 31.6852 22.889 33.3465C23.5891 35.0077 25.3444 33.8165 26.2325 34.4956C27.1207 35.1747 25.9505 35.9688 26.3476 36.5539C26.7447 37.139 28.2179 37.421 28.521 38.4972C28.8241 39.5734 29.9213 41.8197 28.354 42.0288C26.7868 42.2379 26.9537 38.7063 23.3071 36.481C19.6604 34.2557 19.4514 32.6884 19.5243 29.6479C19.5973 26.6074 17.7255 25.74 18.385 22.3027C18.9242 19.4927 22.5746 19.0321 23.2327 15.5945Z" fill="#D3D8EA"/>
</g>
<circle cx="60.498" cy="58.4961" r="13" stroke="#0066FF" stroke-width="3.5"/>
<path d="M53.7734 58.4961H67.2217" stroke="#0066FF" stroke-width="3.4"/>
</svg>

<svg width="80" height="80" viewBox="0 0 80 80" fill="none" xmlns="http://www.w3.org/2000/svg"><mask id="mask0_724_2123" style="mask-type:alpha" maskUnits="userSpaceOnUse" x="6" y="10" width="62" height="63"><circle cx="37" cy="41.996" r="31" fill="#C4C4C4"/></mask><g mask="url(#mask0_724_2123)"><circle cx="37" cy="41.996" r="31" fill="#E3E7F5"/><path d="M27.914 70.356c1.32-.87 4.863.772 7.279.128 1.449-.387 2.273-1.952 2.737-3.318.58-1.707 1.546-1.964 2.737-3.317 1.192-1.353 3.866-1.031 6.539-.71 2.672.323 3.393 1.081 3.8 2.61.388 1.448.42 3.51.323 5.088-.096 1.578-2.447 6.345-2.544 7.923-.096 1.578.548 3.994.452 5.572-.097 1.579-2.158 1.61-3.382.902-1.224-.708-2.32-.934-3.897-1.03-1.579-.097-1.707-.58-2.448-1.417-.741-.837-1.965-1.546-3.801-2.609-1.836-1.062-3.758-4.626-6.281-6.087-2.448-1.416-2.835-2.866-1.514-3.735zM23.233 15.595c.43-2.249 3.32-1.401 1.337-4.326-1.984-2.925-6.366-3.981 4.824-7.475 11.19-3.493 34.255 6.56 34.255 6.56l4.1 7.273L71.85 24.9l-2.339 25.515-3.97-5.85s-1.38-.774-1.87-.868c-.492-.094-1.944 2.173-2.832 1.494-.889-.679-2.1-4.984-2.216-7.042-.115-2.058.167-3.532.355-4.514.188-.982-.021-2.55.167-3.531.188-.983 1.79-2.497 2.622-3.062.833-.565 1.683 1.85 1.87.867.189-.982-.605-2.152-1.002-2.737-.398-.585-2.08-2.435-2.268-1.452-.188.982-.786 2.904-2.037 2.664-1.252-.24-.303-1.076-.115-2.058.282-1.474-2.318-.242-2.715-.827-.397-.585-.247-1.495-2.023-2.854-1.777-1.358-3.13-3.02-3.977-3.02-.5 0-1.755-2.43-2.434-1.542-.68.888.02 2.55-.564 2.947-.586.397-1.077.303-1.965-.376-.888-.68-1.003-2.738-2.57-2.529-1.567.21-1.944 2.174-1.055 2.853.888.679 3.458 3.207 2.685 4.586-.773 1.38-3.907 1.798-5.569 2.498-1.66.7-4.095 2.78-5.172 3.083-1.076.303-.96 2.361-1.943 2.173-.982-.188-2.267-1.452-4.232-1.828-1.964-.376-4.492 2.194-3.792 3.855.7 1.662 2.455.47 3.344 1.15.888.679-.282 1.473.115 2.058.397.585 1.87.867 2.173 1.943.303 1.076 1.4 3.323-.167 3.532-1.567.209-1.4-3.323-5.047-5.548s-3.856-3.793-3.783-6.833c.073-3.04-1.799-3.908-1.139-7.345.54-2.81 4.19-3.27 4.848-6.709z" fill="#D3D8EA"/></g><circle cx="60.498" cy="58.496" r="13" stroke="#06F" stroke-width="3.5"/><path d="M53.773 58.496h13.449" stroke="#06F" stroke-width="3.4"/></svg>
